X: 3
T:Homeward Bound (#53)
M:4/4
L:1/8
S:Capt. F. O'Neill
R:March
K:G
BA|G2 GG G2 Bc|d2 dd d2 ba|g2 d2 cBcd|e2 A2 A2 BA|
G2 GG G2 Bc|d2 dd d2 ba|g2 d2 edcA|B2 G2 G2||
Bc|d2 g2 gfga|g2 d2 d2 Bd|e2 a2 agab|a2 e2 e2 fe|
d2 g2 gfga|babc' d'3 c'|bd'bg (3abc' af|g2 gg g2||
%
% This spirited march was memorized by the writer in early life;
% all circumstances relating to its acquirement being now forgotten.
% We have no assurance of its Gaelic origin, yet few would deny
% that it was worth preserving at least. For obvious reasons, a
% name has been supplied for its identification.

